assets/logos/icons/expand.svg

<svg height="24" viewBox="0 0 24 24" width="24" xmlns="http://www.w3.org/2000/svg"><path d="m19.9880845 5.42612908-4.2809777 4.2809777-1.4142136-1.41421356 4.2928932-4.29289322h-4.5857864v-2h7.9880845v8.0002h-2zm-15.9880845 13.14794182 4.2809777-4.2809777 1.41421356 1.4142136-4.29289322 4.2928932h4.58578644v2h-7.98808448v-8.0002h2z" fill="#492f5c" fill-rule="evenodd"/></svg>

<svg xmlns="http://www.w3.org/2000/svg" width="24" height="24" viewBox="0 0 24 24">
  <path fill="#492F5C" fill-rule="evenodd" d="M19.9880845,5.42612908 L15.7071068,9.70710678 L14.2928932,8.29289322 L18.5857864,4 L14,4 L14,2 L21.9880845,2 L21.9880845,10.0002 L19.9880845,10.0002 L19.9880845,5.42612908 Z M4,18.5740709 L8.2809777,14.2930932 L9.69519126,15.7073068 L5.40229804,20.0002 L9.98808448,20.0002 L9.98808448,22.0002 L2,22.0002 L2,14 L4,14 L4,18.5740709 Z"/>
</svg>
